client/src/assets/images/icon-pills.svg

<svg fill="none" height="55" viewBox="0 0 90 55" width="90" xmlns="http://www.w3.org/2000/svg"><g fill="#06b9ff"><path d="m17.4869 0v40.6908c-9.75229-1.6815-17.4869-10.0887-17.4869-20.5136 0-10.0886 7.73461-18.83205 17.4869-20.1772z"/><path d="m41.6993 20.1772c0 10.4249-7.3983 18.8321-17.4869 20.5136v-40.6908c9.7523 1.34515 17.4869 10.0886 17.4869 20.1772z"/><path d="m57.1688 26.2324 14.124 14.1241-11.0975 11.0975c-4.0354 4.0354-10.4249 4.0354-14.124 0-4.0355-4.0355-3.6992-10.4249 0-14.1241z"/><path d="m87.0987 24.5501-11.0974 11.0974-14.1241-14.124 11.0975-11.0975c4.0354-4.03545 10.0886-4.03545 14.124 0 3.6992 3.6992 4.0355 10.0886 0 14.1241z"/></g></svg>

<svg width="90" height="55" viewBox="0 0 90 55" fill="none" xmlns="http://www.w3.org/2000/svg">
<path d="M17.4869 0V40.6908C7.73461 39.0093 0 30.6021 0 20.1772C0 10.0886 7.73461 1.34515 17.4869 0Z" fill="#06B9FF"/>
<path d="M41.6993 20.1772C41.6993 30.6021 34.301 39.0093 24.2124 40.6908V0C33.9647 1.34515 41.6993 10.0886 41.6993 20.1772Z" fill="#06B9FF"/>
<path d="M57.1688 26.2324L71.2928 40.3565L60.1953 51.454C56.1599 55.4894 49.7704 55.4894 46.0713 51.454C42.0358 47.4185 42.3721 41.0291 46.0713 37.3299L57.1688 26.2324Z" fill="#06B9FF"/>
<path d="M87.0987 24.5501L76.0013 35.6475L61.8772 21.5235L72.9747 10.426C77.0101 6.39055 83.0633 6.39055 87.0987 10.426C90.7979 14.1252 91.1342 20.5146 87.0987 24.5501Z" fill="#06B9FF"/>
</svg>
